dist/img/icons/group222.svg

<svg width="213" height="59" viewBox="0 0 213 59" fill="none" xmlns="http://www.w3.org/2000/svg">
<path fill-rule="evenodd" clip-rule="evenodd" d="M105.236 6.4351C107.289 4.38239 110.617 4.38239 112.67 6.4351C114.722 8.48796 114.722 11.8162 112.67 13.869L100.154 26.3845C96.5608 21.5688 96.9512 14.7197 101.325 10.3457L105.236 6.4351Z" fill="#4F9E91"/>
<path fill-rule="evenodd" clip-rule="evenodd" d="M123.127 34.672C125.181 36.7247 125.181 40.0531 123.127 42.1058C121.076 44.1586 117.747 44.1586 115.694 42.1058L103.179 29.5904C107.994 25.9971 114.843 26.3874 119.217 30.7614L123.127 34.672Z" fill="#EBE1C5"/>
<path fill-rule="evenodd" clip-rule="evenodd" d="M94.8906 52.5645C92.8379 54.6173 89.5095 54.6173 87.4568 52.5645C85.4039 50.5116 85.4039 47.1834 87.4568 45.1305L99.9721 32.6152C103.565 37.4309 103.175 44.28 98.8012 48.6539L94.8906 52.5645Z" fill="#EBCC6E"/>
<path fill-rule="evenodd" clip-rule="evenodd" d="M76.9986 24.3267C74.9458 22.2738 74.9458 18.9456 76.9986 16.8927C79.0515 14.8399 82.3797 14.8399 84.4326 16.8927L96.9481 29.4082C92.1323 33.0015 85.2831 32.6112 80.9092 28.2373L76.9986 24.3267Z" fill="#ED834E"/>
<path fill-rule="evenodd" clip-rule="evenodd" d="M102.439 51.0315C105.466 47.666 106.873 43.3595 106.659 39.1195L112.67 45.1302C112.685 45.1451 112.7 45.16 112.715 45.175V49.4662C112.715 52.3693 110.362 54.7227 107.458 54.7227C105.1 54.7227 103.105 53.1701 102.439 51.0315Z" fill="#ED834E"/>
<path fill-rule="evenodd" clip-rule="evenodd" d="M78.5315 31.8751C81.8969 34.9022 86.2033 36.3091 90.4433 36.0956L84.4328 42.1063C84.4177 42.1212 84.4028 42.1363 84.388 42.1512H80.0968C77.1937 42.1514 74.8402 39.7978 74.8402 36.8947C74.8402 34.5368 76.3928 32.5414 78.5315 31.8751Z" fill="#4F9E91"/>
<path fill-rule="evenodd" clip-rule="evenodd" d="M121.595 27.1248C118.23 24.0978 113.923 22.6909 109.683 22.9042L115.694 16.8937C115.709 16.8787 115.724 16.8637 115.739 16.8486H120.03C122.933 16.8486 125.287 19.2022 125.287 22.1053C125.287 24.4633 123.734 26.4586 121.595 27.1248Z" fill="#EBCC6E"/>
<path fill-rule="evenodd" clip-rule="evenodd" d="M97.6878 7.96787C94.6607 11.3332 93.254 15.6397 93.4673 19.8798L87.4568 13.8692C87.4417 13.8543 87.4268 13.8393 87.4117 13.8244V9.53318C87.4117 6.63007 89.7651 4.27649 92.6682 4.27649C95.0262 4.27649 97.0215 5.82922 97.6878 7.96787Z" fill="#EBE1C5"/>
<path fill-rule="evenodd" clip-rule="evenodd" d="M92.6684 0C87.4033 0 83.135 4.26828 83.135 9.5334V11.3876C79.9674 10.56 76.4569 11.3872 73.9747 13.8694C70.2516 17.5925 70.2516 23.6287 73.9747 27.3517L75.2857 28.6628C72.4607 30.3174 70.5635 33.3846 70.5635 36.8949C70.5635 42.16 74.8317 46.4283 80.0969 46.4283H81.9509C81.1233 49.5959 81.9505 53.1064 84.4327 55.5885C88.1558 59.3115 94.192 59.3115 97.915 55.5885L101.825 51.678C105.275 48.2284 106.886 43.6363 106.659 39.1196L112.67 45.1303C116.393 48.8533 122.429 48.8533 126.152 45.1303C129.876 41.4072 129.876 35.371 126.152 31.6481L124.842 30.3372C127.666 28.6826 129.563 25.6154 129.563 22.1051C129.563 16.84 125.294 12.5717 120.03 12.5717H118.176C119.003 9.40397 118.176 5.89349 115.694 3.41122C111.971 -0.31182 105.935 -0.31182 102.212 3.41122L98.3011 7.32183C94.8514 10.7715 93.2403 15.3634 93.4676 19.8801L87.457 13.8694C87.4419 13.8545 87.427 13.8395 87.4119 13.8246V9.5334C87.4119 6.63029 89.7653 4.27686 92.6684 4.27686C95.0264 4.27686 97.0217 5.82944 97.688 7.96809C97.8855 7.74858 98.0897 7.53306 98.301 7.32183L100.901 4.72225C99.2459 1.89724 96.1787 0 92.6684 0ZM115.739 16.8486C115.724 16.8635 115.709 16.8786 115.694 16.8935L109.683 22.904C113.924 22.6907 118.23 24.0975 121.595 27.1247C123.734 26.4584 125.287 24.463 125.287 22.1051C125.287 19.202 122.934 16.8486 120.03 16.8486H115.739ZM84.3878 42.1514C84.4027 42.1363 84.4176 42.1213 84.4327 42.1063L90.4432 36.0957C86.2032 36.3091 81.8969 34.9022 78.5316 31.8753C76.3929 32.5416 74.8402 34.5369 74.8402 36.8949C74.8402 39.798 77.1937 42.1514 80.0969 42.1514H84.3878ZM78.3677 31.7259C78.2045 31.5752 78.0437 31.4206 77.8853 31.2622V31.2623C78.0437 31.4208 78.2045 31.5752 78.3677 31.7259ZM107.458 59C103.948 59 100.881 57.1026 99.2261 54.2776L101.825 51.678C102.037 51.4668 102.241 51.2513 102.439 51.0318C103.105 53.1704 105.1 54.7231 107.458 54.7231C110.361 54.7231 112.715 52.3697 112.715 49.4666V45.1754C113.947 46.3912 115.427 47.2035 116.992 47.6123V49.4666C116.992 54.7317 112.723 59 107.458 59ZM112.67 6.43533C110.617 4.38262 107.289 4.38262 105.236 6.43533L101.325 10.3459C96.9513 14.72 96.561 21.569 100.154 26.3848L112.67 13.8693C114.723 11.8164 114.723 8.48819 112.67 6.43533ZM123.127 42.1062C125.181 40.0533 125.181 36.7251 123.127 34.6722L119.217 30.7616C114.843 26.3877 107.994 25.9974 103.178 29.5907L115.694 42.1062C117.747 44.159 121.076 44.159 123.127 42.1062ZM94.8908 52.5644C92.8379 54.6172 89.5097 54.6172 87.4568 52.5644C85.4041 50.5115 85.4041 47.1833 87.4568 45.1304L99.9723 32.6149C103.566 37.4307 103.175 44.2799 98.8014 48.6538L94.8908 52.5644ZM76.9988 16.8935C74.9461 18.9464 74.9461 22.2746 76.9988 24.3275L80.9094 28.2381C85.2834 32.612 92.1325 33.0023 96.9482 29.409L84.4327 16.8935C82.3799 14.8408 79.0516 14.8408 76.9988 16.8935Z" fill="#3D3A2C"/>
<path d="M0 19.2781H4.67521V33.8057H12.705V37.7414H0V19.2781Z" fill="white"/>
<path d="M21.1937 38.1376C19.6265 38.1376 18.2529 37.8558 17.0731 37.2924C15.8933 36.7112 14.9776 35.9188 14.326 34.9152C13.6922 33.8938 13.3752 32.7228 13.3752 31.402C13.3752 30.0814 13.6922 28.9192 14.326 27.9155C14.9776 26.8941 15.8933 26.1017 17.0731 25.5383C18.2529 24.9571 19.6265 24.6666 21.1937 24.6666C22.761 24.6666 24.1344 24.9571 25.3142 25.5383C26.4941 26.1017 27.401 26.8941 28.0348 27.9155C28.6864 28.9192 29.0121 30.0814 29.0121 31.402C29.0121 32.7228 28.6864 33.8938 28.0348 34.9152C27.401 35.9188 26.4941 36.7112 25.3142 37.2924C24.1344 37.8558 22.761 38.1376 21.1937 38.1376ZM21.1937 34.5189C22.127 34.5189 22.8666 34.246 23.4124 33.7001C23.976 33.1366 24.2576 32.3706 24.2576 31.402C24.2576 30.4336 23.976 29.6764 23.4124 29.1305C22.8666 28.567 22.127 28.2853 21.1937 28.2853C20.2603 28.2853 19.512 28.567 18.9486 29.1305C18.4026 29.6764 18.1297 30.4336 18.1297 31.402C18.1297 32.3706 18.4026 33.1366 18.9486 33.7001C19.512 34.246 20.2603 34.5189 21.1937 34.5189Z" fill="white"/>
<path d="M37.7443 43.8166C36.899 43.8166 36.0449 43.7374 35.1821 43.5789C34.3369 43.4204 33.606 43.2091 32.9898 42.9449V39.7225C34.3808 40.3211 35.9657 40.6205 37.7443 40.6205C39.0297 40.6205 39.9542 40.3563 40.5176 39.8281C41.0988 39.2999 41.3893 38.525 41.3893 37.5036V36.7377C40.8787 37.1779 40.2447 37.5212 39.4875 37.7678C38.7479 38.0144 37.9555 38.1376 37.1103 38.1376C35.772 38.1376 34.5922 37.8558 33.5708 37.2924C32.5496 36.7288 31.7483 35.9364 31.1672 34.9152C30.6036 33.8938 30.322 32.7228 30.322 31.402C30.322 30.0638 30.6036 28.884 31.1672 27.8627C31.7307 26.8413 32.5231 26.0576 33.5445 25.5118C34.5657 24.9484 35.7368 24.6666 37.0575 24.6666C38.8713 24.6666 40.3679 25.2213 41.5478 26.3307V25.0627H46.0382V36.8698C46.0382 39.0709 45.3602 40.7791 44.0043 41.9941C42.6661 43.2091 40.5793 43.8166 37.7443 43.8166ZM38.2725 34.5454C38.9945 34.5454 39.6372 34.3605 40.2007 33.9907C40.7642 33.6208 41.1604 33.1278 41.3893 32.5114V30.2928C41.1428 29.6764 40.7378 29.1921 40.1743 28.8399C39.6107 28.4702 38.9769 28.2853 38.2725 28.2853C37.3217 28.2853 36.5556 28.567 35.9745 29.1305C35.3933 29.6764 35.1028 30.4247 35.1028 31.3757C35.1028 32.3441 35.3933 33.1189 35.9745 33.7001C36.5556 34.2636 37.3217 34.5454 38.2725 34.5454Z" fill="white"/>
<path d="M55.0361 38.1376C53.4689 38.1376 52.0955 37.8558 50.9156 37.2924C49.7358 36.7112 48.82 35.9188 48.1686 34.9152C47.5346 33.8938 47.2176 32.7228 47.2176 31.402C47.2176 30.0814 47.5346 28.9192 48.1686 27.9155C48.82 26.8941 49.7358 26.1017 50.9156 25.5383C52.0955 24.9571 53.4689 24.6666 55.0361 24.6666C56.6034 24.6666 57.9768 24.9571 59.1567 25.5383C60.3365 26.1017 61.2434 26.8941 61.8774 27.9155C62.5288 28.9192 62.8547 30.0814 62.8547 31.402C62.8547 32.7228 62.5288 33.8938 61.8774 34.9152C61.2434 35.9188 60.3365 36.7112 59.1567 37.2924C57.9768 37.8558 56.6034 38.1376 55.0361 38.1376ZM55.0361 34.5189C55.9694 34.5189 56.709 34.246 57.255 33.7001C57.8184 33.1366 58.1002 32.3706 58.1002 31.402C58.1002 30.4336 57.8184 29.6764 57.255 29.1305C56.709 28.567 55.9694 28.2853 55.0361 28.2853C54.1029 28.2853 53.3544 28.567 52.791 29.1305C52.245 29.6764 51.9721 30.4336 51.9721 31.402C51.9721 32.3706 52.245 33.1366 52.791 33.7001C53.3544 34.246 54.1029 34.5189 55.0361 34.5189Z" fill="white"/>
<path d="M137.418 19.2781H142.094V37.7414H137.418V19.2781Z" fill="white"/>
<path d="M144.461 25.0627H148.952V26.3307C150.131 25.2213 151.627 24.6666 153.441 24.6666C154.762 24.6666 155.933 24.9484 156.954 25.5118C157.976 26.0576 158.768 26.8413 159.331 27.8627C159.895 28.8664 160.177 30.0374 160.177 31.3757C160.177 32.6963 159.895 33.8762 159.331 34.9152C158.768 35.9364 157.976 36.7288 156.954 37.2924C155.951 37.8558 154.78 38.1376 153.441 38.1376C152.596 38.1376 151.786 38.0055 151.012 37.7414C150.255 37.4949 149.62 37.1514 149.11 36.7112V43.526H144.461V25.0627ZM152.227 34.5189C153.178 34.5189 153.944 34.2372 154.524 33.6737C155.105 33.1102 155.397 32.3441 155.397 31.3757C155.397 30.4071 155.105 29.65 154.524 29.1041C153.944 28.5406 153.178 28.2588 152.227 28.2588C151.522 28.2588 150.888 28.4437 150.324 28.8135C149.761 29.1657 149.357 29.65 149.11 30.2663V32.5114C149.357 33.1278 149.761 33.6208 150.324 33.9907C150.888 34.3429 151.522 34.5189 152.227 34.5189Z" fill="white"/>
<path d="M167.107 38.1376C166.087 38.1376 165.022 38.032 163.912 37.8206C162.803 37.627 161.921 37.3452 161.27 36.9754V33.568C161.992 33.9907 162.855 34.3429 163.859 34.6246C164.88 34.8887 165.813 35.0208 166.659 35.0208C167.274 35.0208 167.724 34.9767 168.005 34.8887C168.288 34.8007 168.428 34.6246 168.428 34.3605C168.428 34.1491 168.332 33.9818 168.138 33.8586C167.962 33.7177 167.627 33.5768 167.134 33.4359C166.659 33.2775 166.104 33.1102 165.47 32.934C164.396 32.6171 163.551 32.2913 162.934 31.9567C162.318 31.6221 161.861 31.1995 161.56 30.6889C161.261 30.1783 161.112 29.5356 161.112 28.7607C161.112 27.3871 161.649 26.3659 162.723 25.6967C163.815 25.0099 165.303 24.6666 167.187 24.6666C168.103 24.6666 169.063 24.7635 170.066 24.9571C171.088 25.1509 171.853 25.4062 172.364 25.7232V29.0777C171.836 28.7255 171.131 28.4349 170.251 28.206C169.388 27.977 168.578 27.8627 167.82 27.8627C167.223 27.8627 166.755 27.9242 166.421 28.0475C166.087 28.1532 165.92 28.3468 165.92 28.6286C165.92 28.8928 166.087 29.0953 166.421 29.2362C166.755 29.377 167.354 29.5532 168.217 29.7644C168.78 29.9054 169.018 29.9669 168.93 29.9493C170.057 30.2487 170.928 30.5833 171.545 30.9531C172.162 31.3229 172.592 31.7631 172.839 32.2737C173.104 32.7668 173.236 33.4007 173.236 34.1756C173.236 35.3906 172.708 36.359 171.651 37.081C170.612 37.7854 169.097 38.1376 167.107 38.1376Z" fill="white"/>
<path d="M180.176 38.1378C178.434 38.1378 177.122 37.6535 176.242 36.6851C175.379 35.7165 174.947 34.4399 174.947 32.8551V25.0629H179.596V32.3267C179.596 33.7883 180.256 34.519 181.577 34.519C182.176 34.519 182.722 34.3782 183.215 34.0964C183.707 33.8146 184.112 33.4009 184.429 32.8551V25.0629H189.078V37.7415H184.589V36.3681C184.043 36.9491 183.382 37.3893 182.607 37.6887C181.833 37.9881 181.022 38.1378 180.176 38.1378Z" fill="white"/>
<path d="M191.458 25.0627H195.764V26.4363C196.292 25.8729 196.9 25.4414 197.587 25.142C198.273 24.825 199.004 24.6666 199.779 24.6666C200.73 24.6666 201.487 24.8074 202.051 25.0892C202.632 25.371 203.098 25.7936 203.45 26.357C203.978 25.8288 204.622 25.4149 205.379 25.1157C206.137 24.8163 206.903 24.6666 207.677 24.6666C209.35 24.6666 210.539 25.0981 211.243 25.9609C211.947 26.8061 212.299 28.0299 212.299 29.6323V37.7414H207.861V30.2928C207.861 29.5884 207.73 29.0777 207.465 28.7607C207.202 28.4437 206.761 28.2853 206.146 28.2853C205.353 28.2853 204.709 28.567 204.217 29.1305C204.234 29.4298 204.243 29.8878 204.243 30.504V37.7414H199.806V30.1079C199.806 29.4563 199.692 28.9896 199.462 28.7079C199.233 28.4261 198.828 28.2853 198.248 28.2853C197.349 28.2853 196.575 28.7871 195.923 29.7909V37.7414H191.458V25.0627Z" fill="white"/>
</svg>

<svg width="213" height="59" fill="none" xmlns="http://www.w3.org/2000/svg"><path fill-rule="evenodd" clip-rule="evenodd" d="M105.236 6.435a5.257 5.257 0 017.434 7.434l-12.516 12.515c-3.593-4.815-3.203-11.664 1.171-16.038l3.911-3.91z" fill="#4F9E91"/><path fill-rule="evenodd" clip-rule="evenodd" d="M123.127 34.672a5.254 5.254 0 010 7.434 5.256 5.256 0 01-7.433 0L103.179 29.59c4.815-3.593 11.664-3.203 16.038 1.171l3.91 3.911z" fill="#EBE1C5"/><path fill-rule="evenodd" clip-rule="evenodd" d="M94.89 52.565a5.256 5.256 0 11-7.433-7.434l12.515-12.516c3.593 4.816 3.203 11.665-1.17 16.039l-3.911 3.91z" fill="#EBCC6E"/><path fill-rule="evenodd" clip-rule="evenodd" d="M76.999 24.327a5.257 5.257 0 017.434-7.434l12.515 12.515c-4.816 3.593-11.665 3.203-16.039-1.17L77 24.326zm25.44 26.705a16.53 16.53 0 004.22-11.912l6.011 6.01.045.045v4.291a5.256 5.256 0 01-10.276 1.566z" fill="#ED834E"/><path fill-rule="evenodd" clip-rule="evenodd" d="M78.531 31.875a16.531 16.531 0 0011.912 4.22l-6.01 6.011-.045.045h-4.291a5.256 5.256 0 01-1.566-10.276z" fill="#4F9E91"/><path fill-rule="evenodd" clip-rule="evenodd" d="M121.595 27.125a16.532 16.532 0 00-11.912-4.22l6.011-6.011.045-.045h4.291a5.257 5.257 0 011.565 10.276z" fill="#EBCC6E"/><path fill-rule="evenodd" clip-rule="evenodd" d="M97.688 7.968a16.532 16.532 0 00-4.22 11.912l-6.011-6.01-.045-.046v-4.29a5.257 5.257 0 0110.276-1.566z" fill="#EBE1C5"/><path fill-rule="evenodd" clip-rule="evenodd" d="M92.668 0a9.533 9.533 0 00-9.533 9.533v1.855a9.533 9.533 0 00-9.16 15.964l1.31 1.31a9.533 9.533 0 004.811 17.765h1.855a9.533 9.533 0 0015.964 9.16l3.91-3.909a16.533 16.533 0 004.834-12.558l6.011 6.01a9.533 9.533 0 0013.482 0 9.532 9.532 0 000-13.482l-1.31-1.31a9.53 9.53 0 004.721-8.233c0-5.265-4.269-9.533-9.533-9.533h-1.854a9.533 9.533 0 00-15.964-9.16l-3.91 3.91a16.532 16.532 0 00-4.834 12.558l-6.011-6.01-.045-.045V9.533a5.257 5.257 0 0110.276-1.565c.197-.22.402-.435.613-.646l2.6-2.6A9.53 9.53 0 0092.668 0zm23.071 16.849l-.045.044-6.011 6.011a16.53 16.53 0 0111.912 4.22 5.256 5.256 0 00-1.565-10.276h-4.291zM84.388 42.15l.045-.045 6.01-6.01a16.532 16.532 0 01-11.911-4.22 5.257 5.257 0 001.565 10.276h4.29zm-6.02-10.425zM107.458 59a9.53 9.53 0 01-8.232-4.722l2.599-2.6c.212-.211.416-.427.614-.646a5.258 5.258 0 0010.276-1.565v-4.292a9.486 9.486 0 004.277 2.437v1.855c0 5.265-4.269 9.533-9.534 9.533zm5.212-52.565a5.257 5.257 0 00-7.434 0l-3.911 3.91c-4.374 4.375-4.764 11.224-1.171 16.04l12.516-12.516a5.256 5.256 0 000-7.434zm10.457 35.671a5.255 5.255 0 000-7.434l-3.91-3.91c-4.374-4.374-11.223-4.765-16.039-1.171l12.516 12.515a5.256 5.256 0 007.433 0zM94.891 52.564a5.257 5.257 0 01-7.434-7.434l12.515-12.515c3.594 4.816 3.203 11.665-1.17 16.039l-3.911 3.91zm-17.892-35.67a5.257 5.257 0 000 7.434l3.91 3.91c4.374 4.374 11.223 4.764 16.04 1.171L84.432 16.894a5.257 5.257 0 00-7.434 0z" fill="#3D3A2C"/><path d="M0 19.278h4.675v14.528h8.03v3.935H0V19.278zm21.194 18.86c-1.567 0-2.941-.282-4.12-.846-1.18-.58-2.096-1.373-2.748-2.377-.634-1.021-.95-2.192-.95-3.513 0-1.32.316-2.483.95-3.486.652-1.022 1.567-1.814 2.747-2.378 1.18-.58 2.553-.871 4.12-.871 1.568 0 2.941.29 4.121.871 1.18.564 2.087 1.356 2.72 2.378.652 1.003.978 2.165.978 3.486 0 1.32-.326 2.492-.977 3.513-.634 1.004-1.54 1.796-2.72 2.377-1.18.564-2.554.846-4.121.846zm0-3.62c.933 0 1.673-.272 2.218-.818.564-.563.846-1.33.846-2.298s-.282-1.726-.846-2.271c-.545-.564-1.285-.846-2.218-.846-.934 0-1.682.282-2.245.846-.546.545-.82 1.303-.82 2.271 0 .969.274 1.735.82 2.298.563.546 1.311.819 2.245.819zm16.55 9.299c-.845 0-1.7-.08-2.562-.238-.845-.159-1.576-.37-2.192-.634v-3.223c1.39.6 2.976.898 4.754.898 1.286 0 2.21-.264 2.774-.792.58-.528.871-1.303.871-2.324v-.766c-.51.44-1.144.783-1.902 1.03-.74.246-1.532.37-2.377.37-1.338 0-2.518-.282-3.54-.846a6.12 6.12 0 01-2.403-2.377c-.563-1.021-.845-2.192-.845-3.513 0-1.338.282-2.518.845-3.54a5.768 5.768 0 012.377-2.35c1.022-.564 2.193-.845 3.514-.845 1.813 0 3.31.554 4.49 1.664v-1.268h4.49V36.87c0 2.2-.678 3.91-2.034 5.124-1.338 1.215-3.425 1.823-6.26 1.823zm.529-9.272c.721 0 1.364-.184 1.928-.554.563-.37.96-.863 1.188-1.48v-2.218a2.975 2.975 0 00-1.215-1.453 3.39 3.39 0 00-1.901-.555c-.951 0-1.717.282-2.299.846-.58.545-.871 1.294-.871 2.245 0 .968.29 1.743.871 2.324.582.564 1.348.845 2.299.845zm16.763 3.593c-1.567 0-2.94-.282-4.12-.846-1.18-.58-2.096-1.373-2.747-2.377-.634-1.021-.951-2.192-.951-3.513 0-1.32.317-2.483.95-3.486.652-1.022 1.568-1.814 2.748-2.378 1.18-.58 2.553-.871 4.12-.871 1.567 0 2.94.29 4.12.871 1.18.564 2.087 1.356 2.721 2.378.652 1.003.978 2.165.978 3.486 0 1.32-.326 2.492-.978 3.513-.634 1.004-1.54 1.796-2.72 2.377-1.18.564-2.554.846-4.12.846zm0-3.62c.933 0 1.673-.272 2.219-.818.563-.563.845-1.33.845-2.298s-.282-1.726-.845-2.271c-.546-.564-1.286-.846-2.219-.846-.933 0-1.682.282-2.245.846-.546.545-.819 1.303-.819 2.271 0 .969.273 1.735.819 2.298.563.546 1.312.819 2.245.819zm82.382-15.24h4.676v18.463h-4.676V19.278zm7.043 5.785h4.491v1.268c1.179-1.11 2.675-1.664 4.489-1.664 1.321 0 2.492.281 3.513.845a5.761 5.761 0 012.377 2.35c.564 1.004.846 2.175.846 3.514 0 1.32-.282 2.5-.846 3.54a5.934 5.934 0 01-2.377 2.376c-1.003.564-2.174.846-3.513.846a7.471 7.471 0 01-2.429-.397c-.757-.246-1.392-.59-1.902-1.03v6.815h-4.649V25.063zm7.766 9.456c.951 0 1.717-.282 2.297-.845.581-.564.873-1.33.873-2.298 0-.969-.292-1.726-.873-2.272-.58-.563-1.346-.845-2.297-.845-.705 0-1.339.185-1.903.555a2.978 2.978 0 00-1.214 1.452v2.245c.247.617.651 1.11 1.214 1.48a3.518 3.518 0 001.903.528zm14.88 3.619c-1.02 0-2.085-.106-3.195-.317-1.109-.194-1.991-.476-2.642-.846v-3.407c.722.423 1.585.775 2.589 1.057 1.021.264 1.954.396 2.8.396.615 0 1.065-.044 1.346-.132.283-.088.423-.264.423-.529a.567.567 0 00-.29-.501c-.176-.141-.511-.282-1.004-.423a34.719 34.719 0 00-1.664-.502c-1.074-.317-1.919-.643-2.536-.977-.616-.335-1.073-.758-1.374-1.268-.299-.51-.448-1.153-.448-1.928 0-1.374.537-2.395 1.611-3.064 1.092-.687 2.58-1.03 4.464-1.03a15.2 15.2 0 012.879.29c1.022.194 1.787.45 2.298.766v3.355c-.528-.352-1.233-.643-2.113-.872-.863-.229-1.673-.343-2.431-.343-.597 0-1.065.061-1.399.184-.334.106-.501.3-.501.582 0 .264.167.466.501.607.334.141.933.317 1.796.528.563.141.801.203.713.185 1.127.3 1.998.634 2.615 1.004.617.37 1.047.81 1.294 1.32.265.494.397 1.128.397 1.903 0 1.215-.528 2.183-1.585 2.905-1.039.704-2.554 1.057-4.544 1.057zm13.069 0c-1.742 0-3.054-.484-3.934-1.453-.863-.968-1.295-2.245-1.295-3.83v-7.792h4.649v7.264c0 1.461.66 2.192 1.981 2.192a3.23 3.23 0 001.638-.423c.492-.281.897-.695 1.214-1.24v-7.793h4.649v12.679h-4.489v-1.374a5.3 5.3 0 01-1.982 1.32 6.67 6.67 0 01-2.431.45zm11.282-13.075h4.306v1.373a5.48 5.48 0 011.823-1.294 5.164 5.164 0 012.192-.475c.951 0 1.708.14 2.272.422a3.346 3.346 0 011.399 1.268 5.598 5.598 0 011.929-1.241 6.21 6.21 0 012.298-.45c1.673 0 2.862.432 3.566 1.295.704.845 1.056 2.069 1.056 3.671v8.11h-4.438v-7.45c0-.704-.131-1.214-.396-1.531-.263-.317-.704-.476-1.319-.476-.793 0-1.437.282-1.929.846.017.299.026.757.026 1.373v7.237h-4.437v-7.633c0-.652-.114-1.118-.344-1.4-.229-.282-.634-.423-1.214-.423-.899 0-1.673.502-2.325 1.506v7.95h-4.465V25.063z" fill="#fff"/></svg>
